dist/img/bg-logIn-singUp.svg

<svg width="209" height="236" viewBox="0 0 209 236" fill="none" xmlns="http://www.w3.org/2000/svg">
<path d="M137.359 7.93536C138.213 8.73839 138.871 9.72751 139.281 10.826C139.691 11.9244 139.843 13.1026 139.724 14.2691L139.724 44.7932C139.476 46.257 138.751 47.598 137.664 48.6088C136.458 49.5653 135 50.1488 133.467 50.2876L122.287 50.2876L124.119 51.5467C126.003 52.8908 127.777 54.3836 129.422 56.0109C132.041 58.5822 134.266 61.5265 136.023 64.7484C137.806 67.8489 139.093 71.209 139.839 74.7069C141.215 80.4419 141.894 86.3223 141.861 92.2201C142.027 101.596 139.975 110.879 135.871 119.31C131.832 127.233 125.19 133.525 117.06 137.129C124.654 141.512 130.867 147.936 134.993 155.672C139.57 164.133 141.858 173.642 141.632 183.258C141.948 191.655 140.41 200.018 137.13 207.754C134.465 213.811 130.27 219.07 124.958 223.016C119.297 227.275 112.793 230.279 105.881 231.83C97.2993 233.894 88.5283 235.071 79.7062 235.34L5.7997 235.34C4.46958 235.084 3.23166 234.478 2.21311 233.585C1.05689 232.514 0.359637 231.037 0.267215 229.464L0.267214 196.956C0.234835 196.111 0.36986 195.268 0.664538 194.476C0.959215 193.684 1.4077 192.958 1.98418 192.339C2.67206 191.664 3.50101 191.15 4.41144 190.833C5.32187 190.516 6.29114 190.405 7.24959 190.508L74.7461 190.508C82.5087 190.615 90.1336 188.453 96.6853 184.289C98.8537 182.59 100.621 180.433 101.861 177.973C103.101 175.513 103.783 172.81 103.858 170.057C104.194 165.523 103.366 160.979 101.455 156.855C99.7292 153.855 97.3886 151.255 94.5867 149.224C91.7503 147.295 88.6543 145.779 85.3914 144.722C81.4141 143.617 77.3092 143.04 73.1817 143.005L5.7997 143.005C4.37651 142.755 3.05338 142.107 1.98418 141.135C0.887438 140.142 0.183458 138.788 0.000123631 137.32L0.000123237 104.277C0.129045 102.639 0.83159 101.099 1.98418 99.9274C3.22528 98.7238 4.87271 98.0294 6.60095 97.9815L73.4106 97.9815C76.4767 97.9654 79.5374 97.7231 82.5679 97.2566C85.5613 96.7855 88.4922 95.9792 91.3054 94.8528C94.8192 93.5498 97.8714 91.2407 100.081 88.2138C102.462 84.8624 103.791 80.8772 103.897 76.7673C104.417 72.3267 103.508 67.8359 101.302 63.9471C99.5135 60.6292 96.83 57.8796 93.5566 56.0109C89.9326 54.1091 86.0881 52.661 82.11 51.6993C77.8519 50.6852 73.4703 50.2868 69.0991 50.5165L5.7234 50.5165C4.19093 50.2595 2.78424 49.5093 1.7171 48.3798C0.821457 47.4 0.271912 46.1535 0.152726 44.8314L0.152725 12.018C0.391251 10.5989 1.02617 9.27617 1.98418 8.20245C3.17168 7.29349 4.55771 6.67893 6.02863 6.40916L133.009 6.40915C134.599 6.35349 136.152 6.89834 137.359 7.93536Z" fill="#F6F6F7"/>
<path d="M208.48 28.4638C208.48 34.095 206.809 39.5997 203.68 44.2813C200.551 48.963 196.103 52.6112 190.9 54.7645C185.696 56.9177 179.971 57.4791 174.449 56.3778C168.926 55.2764 163.855 52.5617 159.875 48.5772C155.896 44.5926 153.188 39.5173 152.094 33.9934C151 28.4694 151.57 22.7451 153.73 17.5447C155.89 12.3443 159.544 7.90152 164.23 4.77847C168.916 1.65543 174.423 -0.00752237 180.054 2.61213e-05C183.792 -0.005011 187.493 0.728068 190.947 2.15719C194.4 3.58631 197.538 5.68335 200.179 8.32796C202.82 10.9726 204.913 14.1127 206.337 17.5681C207.762 21.0235 208.49 24.7263 208.48 28.4638Z" fill="#F6F6F7"/>
</svg>

<svg width="209" height="236" viewBox="0 0 209 236" fill="none" xmlns="http://www.w3.org/2000/svg"><path d="M137.359 7.935a7.631 7.631 0 0 1 2.365 6.334v30.524a6.752 6.752 0 0 1-2.06 3.816 7.9 7.9 0 0 1-4.197 1.679h-11.18l1.832 1.259a43.292 43.292 0 0 1 5.303 4.464 37.215 37.215 0 0 1 6.601 8.737c1.783 3.1 3.07 6.461 3.816 9.959a73.307 73.307 0 0 1 2.022 17.513 59.49 59.49 0 0 1-5.99 27.09 38.734 38.734 0 0 1-18.811 17.819 46.887 46.887 0 0 1 17.933 18.543 55.25 55.25 0 0 1 6.639 27.586 57.24 57.24 0 0 1-4.502 24.496 38.154 38.154 0 0 1-12.172 15.262 49.908 49.908 0 0 1-19.077 8.814 128.709 128.709 0 0 1-26.175 3.51H5.8a7.628 7.628 0 0 1-3.587-1.755 6.106 6.106 0 0 1-1.946-4.121v-32.508a6.409 6.409 0 0 1 1.717-4.617 6.531 6.531 0 0 1 5.266-1.831h67.496a39.878 39.878 0 0 0 21.94-6.219 18.74 18.74 0 0 0 7.172-14.232 26.707 26.707 0 0 0-2.403-13.202c-1.726-3-4.066-5.6-6.868-7.631a36.177 36.177 0 0 0-9.196-4.502 47.103 47.103 0 0 0-12.21-1.717H5.8a7.635 7.635 0 0 1-3.816-1.87A6.18 6.18 0 0 1 0 137.32v-33.043a6.983 6.983 0 0 1 1.984-4.35 6.907 6.907 0 0 1 4.617-1.946h66.81a62.34 62.34 0 0 0 9.157-.724 40.406 40.406 0 0 0 8.737-2.404 19.077 19.077 0 0 0 8.776-6.64 20.686 20.686 0 0 0 3.816-11.446c.52-4.44-.389-8.931-2.595-12.82a20.145 20.145 0 0 0-7.745-7.936 49.833 49.833 0 0 0-11.447-4.312 45.788 45.788 0 0 0-13.01-1.182H5.722a7.135 7.135 0 0 1-4.006-2.137A6.067 6.067 0 0 1 .153 44.83V12.018a7.631 7.631 0 0 1 1.831-3.816A9.462 9.462 0 0 1 6.03 6.41h126.98a6.335 6.335 0 0 1 4.35 1.526zM208.48 28.464a28.466 28.466 0 0 1-34.031 27.914 28.467 28.467 0 0 1-22.355-22.385A28.466 28.466 0 0 1 180.054 0a28.389 28.389 0 0 1 28.426 28.464z" fill="#F6F6F7"/></svg>
